Adwaita++-Dark/mimetypes/16/application-pdf.svg

<svg height="16" width="16" xmlns="http://www.w3.org/2000/svg">
  <path d="m3.4414062.4921875v.0078125h-.140625c-.031216-.001464-.062534-.001464-.09375 0-.031216-.001464-.062534-.001464-.09375 0-.478082.0912215-.8210763.5133685-.8125 1v13c.0000552.552262.4477377.999945 1 1h9.9999998c.552262-.000055.999945-.447738 1-1v-9.4375c.0062-.2675647-.0951-.5264505-.28125-.71875l-3.5625-3.5625c-.192299-.18614549-.451186-.28744862-.7187498-.28125h-.1445312v-.0078125zm.859375 1.7929687h4.9980469l.0019531.2148438v3h2.9999998l.023438 3.5h-8.0234378zm-.5 8.0527348h1.3554688c.4033971 0 .7125893.08977.9277344.269531.2165605.178344.3261719.432462.3261718.763672.0000002.332625-.1096113.587818-.3261718.767578-.2151451.178343-.5243373.267578-.9277344.267578h-.5390625v1.099609h-.8164063zm3.1835938 0h.8632812c.4812457 0 .8392577.03416 1.0742188.103515.2363765.06794.4389859.183467.6074219.347656.1486199.142959.2578912.307304.3300781.494141.072187.186837.109375.398389.109375.634766 0 .239207-.037188.454326-.109375.642578-.072187.186837-.1814582.35118-.3300781.494141-.1698514.164187-.3754893.280253-.6132813.349609-.2377919.06794-.5927752.101562-1.0683594.101562h-.8632812zm3.609375 0h2.207031v.617187h-1.388672v.589844h1.304688v.617187h-1.304688v1.34375h-.818359zm-5.9765625.591797v.884765h.453125c.1585279 0 .2808464-.0388.3671875-.115234.086341-.07785.1289062-.186583.1289062-.328125 0-.141543-.042565-.251692-.1289062-.328125-.086341-.07643-.2086596-.113282-.3671875-.113281zm3.1855469.02539v1.933594h.2929687c.3340411 0 .5881588-.08244.7636719-.248047.1769285-.165605.265625-.407016.265625-.722656 0-.314226-.0881588-.552608-.2636719-.716797-.1755131-.16419-.4301685-.246094-.765625-.246094z" fill="#e6ddff"/>
</svg>

<svg xmlns="http://www.w3.org/2000/svg" width="16" height="16" version="1.1">
 <path style="fill:#E6DDFF" d="M 3.4414062 0.4921875 L 3.4414062 0.5 L 3.3007812 0.5 C 3.2695652 0.498536 3.2382472 0.498536 3.2070312 0.5 C 3.1758152 0.498536 3.1444972 0.498536 3.1132812 0.5 C 2.6351992 0.5912215 2.2922049 1.0133685 2.3007812 1.5 L 2.3007812 14.5 C 2.3008364 15.052262 2.7485189 15.499945 3.3007812 15.5 L 13.300781 15.5 C 13.853043 15.499945 14.300726 15.052262 14.300781 14.5 L 14.300781 5.0625 C 14.306981 4.7949353 14.205681 4.5360495 14.019531 4.34375 L 10.457031 0.78125 C 10.264732 0.59510451 10.005845 0.49380138 9.7382812 0.5 L 9.59375 0.5 L 9.59375 0.4921875 L 3.4414062 0.4921875 z M 4.3007812 2.2851562 L 9.2988281 2.2851562 L 9.3007812 2.5 L 9.3007812 5.5 L 12.300781 5.5 L 12.324219 9 L 4.3007812 9 L 4.3007812 2.2851562 z M 3.8007812 10.337891 L 5.15625 10.337891 C 5.5596471 10.337891 5.8688393 10.427661 6.0839844 10.607422 C 6.3005449 10.785766 6.4101563 11.039884 6.4101562 11.371094 C 6.4101564 11.703719 6.3005449 11.958912 6.0839844 12.138672 C 5.8688393 12.317015 5.5596471 12.40625 5.15625 12.40625 L 4.6171875 12.40625 L 4.6171875 13.505859 L 3.8007812 13.505859 L 3.8007812 10.337891 z M 6.984375 10.337891 L 7.8476562 10.337891 C 8.3289019 10.337891 8.6869139 10.372051 8.921875 10.441406 C 9.1582515 10.509346 9.3608609 10.624873 9.5292969 10.789062 C 9.6779168 10.932021 9.7871881 11.096366 9.859375 11.283203 C 9.931562 11.47004 9.96875 11.681592 9.96875 11.917969 C 9.96875 12.157176 9.931562 12.372295 9.859375 12.560547 C 9.787188 12.747384 9.6779168 12.911727 9.5292969 13.054688 C 9.3594455 13.218875 9.1538076 13.334941 8.9160156 13.404297 C 8.6782237 13.472237 8.3232404 13.505859 7.8476562 13.505859 L 6.984375 13.505859 L 6.984375 10.337891 z M 10.59375 10.337891 L 12.800781 10.337891 L 12.800781 10.955078 L 11.412109 10.955078 L 11.412109 11.544922 L 12.716797 11.544922 L 12.716797 12.162109 L 11.412109 12.162109 L 11.412109 13.505859 L 10.59375 13.505859 L 10.59375 10.337891 z M 4.6171875 10.929688 L 4.6171875 11.814453 L 5.0703125 11.814453 C 5.2288404 11.814453 5.3511589 11.775653 5.4375 11.699219 C 5.523841 11.621369 5.5664062 11.512636 5.5664062 11.371094 C 5.5664062 11.229551 5.5238412 11.119402 5.4375 11.042969 C 5.351159 10.966539 5.2288404 10.929687 5.0703125 10.929688 L 4.6171875 10.929688 z M 7.8027344 10.955078 L 7.8027344 12.888672 L 8.0957031 12.888672 C 8.4297442 12.888672 8.6838619 12.806232 8.859375 12.640625 C 9.0363035 12.47502 9.125 12.233609 9.125 11.917969 C 9.125 11.603743 9.0368412 11.365361 8.8613281 11.201172 C 8.685815 11.036982 8.4311596 10.955078 8.0957031 10.955078 L 7.8027344 10.955078 z"/>
</svg>
